X: 14090
T: The SILVER BEAR
C: Bob McQuillen Feb'09
B: Bob's Note Book 14 #90
%R: reel
%D:2009
Z: 2020 John Chambers <jc:trillian.mit.edu>
M: C
L: 1/8
K: A
af \
| ecBA cAce | faec BAFE | A2cA ceaf | ecAc B2Ac |
| ecBA cAce | faec BAFE | A2cA BcAF | EFAB A2  :|
|: ce \
| fdfa ecAc | Bcde cAce | f2fa ecea | bagf e2ag |
| fdfa ecAc | Bcde fgaf | eaga faAc | ecBc A2  :|
%%begintext align
%% Hellen Pilling and
%% Dan'l Moore were kind enough to get the Rythm
%% Rollers to come out to Rollins, MT, to play for the
%% Bear Hug Dance Camp's 25th Anniversary. The place
%% was beautiful, the food was yummy, and we had
%% a great time. Thanks loads, dear friends!
%%endtext

%%sep 1 1 500

%%sep 1 1 500

